X:218
T:Devlin's Jig
M:6/8
L:1/8
K:Bm
|:"Bm"d2B BAB | F2B BAB | "G"d2B Bcd | "A"cBc ABc |
"D"dcd "A"ede | "Bm"f2b afe | "G"dcB "A"AFE | "Bm"FBB B2 B :|
|:"D"a^ga f3 | "A"ecA A3 | c2A cBA |"F#"cde f2e |
"Bm"d2B BAB | F2B Bcd | "G"efg "A"fef | "Bm"dBB B2 B :|
